X:1
T:Mazas op 36 no 3
T:Mazas op 36 no 3
T:The firm stroke
L:1/8
Q:1/4=112
M:4/4
K:C
V:1 treble nm="Piano" snm="Pno."
V:1
"^Allegro moderato\n" !wedge!A, z !wedge!C z !wedge!E z !wedge!A z | %1
 !wedge!^G z !wedge!B z (!>!e/f/e/^d/) !tenuto!e2 | !wedge!E z !wedge!^G z !wedge!B z !wedge!d z | %3
 !wedge!c z !wedge!e z (!>!a/b/a/^g/) !tenuto!a2 | !wedge!e z !wedge!a z !wedge!c' z !wedge!e z | %5
 !wedge!^d z !wedge!^g z !wedge!b z !wedge!=d z | (ca)ec (Bdef) | (A2- A/^G/B/A/) G2 z2 | %8
 !wedge!A, z !wedge!C z !wedge!E z !wedge!A z | !wedge!^G z !wedge!B z (!>!e/f/e/^d/) !tenuto!e2 | %10
 !wedge!E z !wedge!^G z !wedge!B z !wedge!d z | !wedge!c z !wedge!e z (!>!a/b/a/^g/) !tenuto!a2 | %12
 !wedge!e z !wedge!c' z !wedge!b z !wedge!d z | !wedge!^c z !wedge!b z !wedge!a z !wedge!=c z | %14
 !wedge!B z !wedge!a z !wedge!E z !wedge!^g z | a2 (!>!c'/a/)e/c/ A2 z2 | %16
 !wedge!vC z (c/B/e/d/) !wedge!c z !wedge!C z | !wedge![B,D] z !wedge![A,^F] z !tenuto![G,G]2 z2 | %18
 !wedge!vG, z (f/e/a/g/) !wedge!f z !wedge![G,F] z | !wedge![CE] z !wedge![G,D] z !tenuto!C2 z2 | %20
 !wedge!v[G,G] z (!>!g/f/e/d/ c/B/A/G/ ^F/G/A/E/) | %21
 !wedge![G,F] z (!>!f/e/d/c/ B/A/G/F/ E/F/G/D/) | %22
 !wedge![G,E] z (!>!e/d/c/B/ A/G/F/E/ D/C/B,/A,/) | %23
 !wedge![B,D] z !wedge![A,^F] z !tenuto![G,G]2 z2 | vC z (c/B/e/d/) !wedge!c z !wedge!C z | %25
 !wedge![B,D] z !wedge![A,^F] z !tenuto![G,G]2 z2 | %26
 !wedge!vG, z (=f/e/a/g/) !wedge!f z !wedge![G,F] z | !wedge![CE] z !wedge![G,D] z !tenuto!C2 z2 | %28
 !tenuto!G2 (C/B,/C/D/ E/F/G/A/ B/c/e/c/) | !tenuto!A2 (F/E/F/G/ A/B/^c/d/ c/d/f/d/) | %30
 !tenuto!B2 (G/A/B/=c/ d/e/f/g/ a/b/c'/d'/ | _e') z v[A,^F]4 [A,F]2 | %32
 !wedge![G,G] z !wedge![ec'] z !wedge!G, z !wedge![db] z | !tenuto![ec']2 z2 (ug2{/b} a>g) | %34
 (g3 e) (d>e f>g) | (f2 e2) (e2{/g} f>e) | (e3 c) (B>c d>e) | (d2 c2) (e2 A2) | ^G4{/B} (AGAc) | %39
 (B^G E2) (e2 A2) | ^G4{/B} (AGAc) | (e2 !>!f2- f/)(d/B/^G/ F/D/B,/^G,/) | %42
 !wedge!A, z !wedge!C z !wedge!E z !wedge!A z | !wedge!^G z !wedge!B z (!>!e/f/e/^d/) !tenuto!e2 | %44
 !wedge!E z !wedge!^G z !wedge!B z !wedge!d z | !wedge!c z !wedge!e z (!>!a/b/a/^g/) !tenuto!a2 | %46
 !wedge!c' z !wedge!^d z !wedge!b z !wedge!=d z | !wedge!a z !wedge!^c z !wedge!a z !wedge!=c z | %48
 !wedge!B z !wedge!f z !wedge!e z !wedge!^G z | !wedge!c z !wedge!^D z !wedge!B z !wedge!=D z | %50
 !wedge!_B z !wedge!^C z !wedge!A z !wedge!=C z | !wedge!_B, z !wedge!F z !wedge!E z !wedge!^G, z | %52
 A,4 (vE>F E>F | E2) (A2 c2 e2) | (e>d c2) (B3 c/d/) | (c3 B/A/) (e2 ^G2 | A4) (e>f e>f | %57
 e2) (a2 c'2 e'2) | (e'>d' c'2) (_b2 f'2) | (e'>c' a>c') (e3 ^f/^g/) | a4 (B2 f2) | %61
 (e>c A>c) (E3 ^F/^G/) | A4 (B,2 F2) | E^F/^G/ A/B/c/A/ !wedge!e z !wedge!v[EB^g] z | %64
 !wedge!v[Aa] z !wedge!v[Ac'] z v[Aa]2 z2 |] %65

